actions/24/process-stop.svg

<?xml version="1.0" encoding="UTF-8" standalone="no"?>
<!-- Created with Inkscape (http://www.inkscape.org/) -->

<svg
   xmlns:dc="http://purl.org/dc/elements/1.1/"
   xmlns:cc="http://creativecommons.org/ns#"
   xmlns:rdf="http://www.w3.org/1999/02/22-rdf-syntax-ns#"
   xmlns:svg="http://www.w3.org/2000/svg"
   xmlns="http://www.w3.org/2000/svg"
   xmlns:xlink="http://www.w3.org/1999/xlink"
   xmlns:inkscape="http://www.inkscape.org/namespaces/inkscape"
   version="1.0"
   width="24"
   height="24"
   id="svg2">
  <metadata
     id="metadata31">
    <rdf:RDF>
      <cc:Work
         rdf:about="">
        <dc:format>image/svg+xml</dc:format>
        <dc:type
           rdf:resource="http://purl.org/dc/dcmitype/StillImage" />
        <dc:title />
      </cc:Work>
    </rdf:RDF>
  </metadata>
  <defs
     id="defs4">
    <linearGradient
       id="linearGradient2867-449-88-871-390-598-476-591-434-148-57-177-641-289-620-227-114-444-680-744-4-1-5-5-1">
      <stop
         id="stop5430-5-0-9-9-4"
         style="stop-color:#737373;stop-opacity:1"
         offset="0" />
      <stop
         id="stop5432-2-0-0-4-6"
         style="stop-color:#636363;stop-opacity:1"
         offset="0.26238" />
      <stop
         id="stop5434-9-6-8-4-9"
         style="stop-color:#4b4b4b;stop-opacity:1"
         offset="0.704952" />
      <stop
         id="stop5436-2-7-0-2-5"
         style="stop-color:#3f3f3f;stop-opacity:1"
         offset="1" />
    </linearGradient>
    <radialGradient
       cx="16.202444"
       cy="-19.005346"
       r="19.99999"
       fx="16.202444"
       fy="-19.005346"
       id="radialGradient4075"
       xlink:href="#linearGradient2867-449-88-871-390-598-476-591-434-148-57-177-641-289-620-227-114-444-680-744-4-1-5-6"
       gradientUnits="userSpaceOnUse"
       gradientTransform="matrix(0,1.7142863,1.7418575,0,44.771221,-20.233914)" />
    <linearGradient
       id="linearGradient2867-449-88-871-390-598-476-591-434-148-57-177-641-289-620-227-114-444-680-744-4-1-5-6">
      <stop
         id="stop5430-5-0-9-4"
         style="stop-color:#737373;stop-opacity:1"
         offset="0" />
      <stop
         id="stop5432-2-0-0-4-5"
         style="stop-color:#636363;stop-opacity:1"
         offset="0.26238" />
      <stop
         id="stop5434-9-6-8-5"
         style="stop-color:#4b4b4b;stop-opacity:1"
         offset="0.704952" />
      <stop
         id="stop5436-2-7-0-0"
         style="stop-color:#3f3f3f;stop-opacity:1"
         offset="1" />
    </linearGradient>
    <radialGradient
       cx="16.202444"
       cy="-19.005346"
       r="19.99999"
       fx="16.202444"
       fy="-19.005346"
       id="radialGradient3278"
       xlink:href="#linearGradient2867-449-88-871-390-598-476-591-434-148-57-177-641-289-620-227-114-444-680-744-4-1-5-5-1"
       gradientUnits="userSpaceOnUse"
       gradientTransform="matrix(0,1.5000006,1.5241254,0,40.665768,-23.490064)" />
    <radialGradient
       cx="16.202444"
       cy="-19.005346"
       r="19.99999"
       fx="16.202444"
       fy="-19.005346"
       id="radialGradient3278-9"
       xlink:href="#linearGradient2867-449-88-871-390-598-476-591-434-148-57-177-641-289-620-227-114-444-680-744-4-1-5-5-1-55"
       gradientUnits="userSpaceOnUse"
       gradientTransform="matrix(1.0166597,1.0000037,0.97650205,-1.0748863,10.941487,-43.985245)" />
    <linearGradient
       id="linearGradient2867-449-88-871-390-598-476-591-434-148-57-177-641-289-620-227-114-444-680-744-4-1-5-5-1-55">
      <stop
         id="stop5430-5-0-9-9-4-6"
         style="stop-color:#737373;stop-opacity:1"
         offset="0" />
      <stop
         id="stop5432-2-0-0-4-6-7"
         style="stop-color:#636363;stop-opacity:1"
         offset="0.26238" />
      <stop
         id="stop5434-9-6-8-4-9-3"
         style="stop-color:#4b4b4b;stop-opacity:1"
         offset="0.704952" />
      <stop
         id="stop5436-2-7-0-2-5-7"
         style="stop-color:#3f3f3f;stop-opacity:1"
         offset="1" />
    </linearGradient>
    <linearGradient
       id="linearGradient2867-449-88-871-390-598-476-591-434-148-57-177-641-289-620-227-114-444-680-744-4-1-5-5-1-55-0">
      <stop
         id="stop5430-5-0-9-9-4-6-5"
         style="stop-color:#737373;stop-opacity:1"
         offset="0" />
      <stop
         id="stop5432-2-0-0-4-6-7-6"
         style="stop-color:#636363;stop-opacity:1"
         offset="0.26238" />
      <stop
         id="stop5434-9-6-8-4-9-3-8"
         style="stop-color:#4b4b4b;stop-opacity:1"
         offset="0.704952" />
      <stop
         id="stop5436-2-7-0-2-5-7-1"
         style="stop-color:#3f3f3f;stop-opacity:1"
         offset="1" />
    </linearGradient>
    <radialGradient
       cx="16.202444"
       cy="-19.005346"
       r="19.99999"
       fx="16.202444"
       fy="-19.005346"
       id="radialGradient4106"
       xlink:href="#linearGradient2867-449-88-871-390-598-476-591-434-148-57-177-641-289-620-227-114-444-680-744-4-1-5-5-1-55-0"
       gradientUnits="userSpaceOnUse"
       gradientTransform="matrix(0,1.426045,1.4522179,0,22.218363,-39.273003)" />
    <radialGradient
       cx="16.202444"
       cy="-19.005346"
       r="19.99999"
       fx="16.202444"
       fy="-19.005346"
       id="radialGradient4139"
       xlink:href="#linearGradient2867-449-88-871-390-598-476-591-434-148-57-177-641-289-620-227-114-444-680-744-4-1-5-6"
       gradientUnits="userSpaceOnUse"
       gradientTransform="matrix(0,1.7142863,1.7418575,0,44.771221,-20.233914)" />
    <radialGradient
       cx="16.202444"
       cy="-19.005346"
       r="19.99999"
       fx="16.202444"
       fy="-19.005346"
       id="radialGradient4144"
       xlink:href="#linearGradient2867-449-88-871-390-598-476-591-434-148-57-177-641-289-620-227-114-444-680-744-4-1-5-6"
       gradientUnits="userSpaceOnUse"
       gradientTransform="matrix(0,1.7142863,1.7418575,0,44.851054,-28.368044)" />
    <radialGradient
       cx="16.202444"
       cy="-19.005346"
       r="19.99999"
       fx="16.202444"
       fy="-19.005346"
       id="radialGradient4144-1"
       xlink:href="#linearGradient2867-449-88-871-390-598-476-591-434-148-57-177-641-289-620-227-114-444-680-744-4-1-5-6-3"
       gradientUnits="userSpaceOnUse"
       gradientTransform="matrix(0,1.7142863,1.7418575,0,44.851054,-28.368044)" />
    <linearGradient
       id="linearGradient2867-449-88-871-390-598-476-591-434-148-57-177-641-289-620-227-114-444-680-744-4-1-5-6-3">
      <stop
         id="stop5430-5-0-9-4-4"
         style="stop-color:#737373;stop-opacity:1"
         offset="0" />
      <stop
         id="stop5432-2-0-0-4-5-7"
         style="stop-color:#636363;stop-opacity:1"
         offset="0.26238" />
      <stop
         id="stop5434-9-6-8-5-6"
         style="stop-color:#4b4b4b;stop-opacity:1"
         offset="0.704952" />
      <stop
         id="stop5436-2-7-0-0-0"
         style="stop-color:#3f3f3f;stop-opacity:1"
         offset="1" />
    </linearGradient>
  </defs>
  <path
     d="m -20.440678,4.1949155 -8.84375,8.8437505 1.6875,1.71875 1.15625,-1.15625 0,6.593749 5,0 0,-4 c 0,-0.553999 0.446,-0.999999 1,-0.999999 0.554,0 1,0.446 1,0.999999 l 0,4 5,0 0,-6.593749 1.15625,1.15625 1.6875,-1.71875 -8.84375,-8.8437505 z m 4,1 0,1.53125 2,2.09375 0,-3.625 -2,0 z"
     inkscape:connector-curvature="0"
     id="path2998-2"
     style="opacity:0.35;color:#000000;fill:#ffffff;fill-opacity:1;fill-rule:nonzero;stroke:none;stroke-width:1;marker:none;visibility:visible;display:inline;overflow:visible;enable-background:accumulate" />
  <path
     d="M 7.1875,5 C 6.9435121,5.0068659 6.7127478,5.1127159 6.53125,5.3125 l -1.25,1.375 C 4.9182543,7.0870681 4.9276712,7.7152259 5.3125,8.09375 L 9.28125,12 5.3125,15.90625 C 4.9276712,16.284774 4.9182543,16.912932 5.28125,17.3125 l 1.25,1.375 c 0.3629957,0.399568 0.9589212,0.409774 1.34375,0.03125 l 4.125,-4.0625 4.125,4.0625 c 0.384829,0.378524 0.980754,0.368318 1.34375,-0.03125 l 1.25,-1.375 c 0.362996,-0.399568 0.353579,-1.027726 -0.03125,-1.40625 L 14.71875,12 18.6875,8.09375 C 19.072329,7.7152259 19.081746,7.0870681 18.71875,6.6875 l -1.25,-1.375 C 17.105754,4.9129319 16.509829,4.9027259 16.125,5.28125 L 12,9.34375 7.875,5.28125 C 7.6825856,5.0919879 7.4314879,4.9931341 7.1875,5 z"
     inkscape:connector-curvature="0"
     id="rect3280"
     style="color:#000000;fill:url(#radialGradient4144-1);fill-opacity:1;fill-rule:nonzero;stroke:none;stroke-width:1;marker:none;visibility:visible;display:inline;overflow:visible;enable-background:accumulate" />
  <path
     d="m 7.1875,5.5 c -0.1060184,0.00298 -0.1839437,0.04914 -0.28125,0.15625 l -1.25,1.375 c -0.1815814,0.199876 -0.1871552,0.503411 0,0.6875 L 9.625,11.625 a 0.50886981,0.50886981 0 0 1 0,0.75 l -3.96875,3.90625 c -0.187155,0.184089 -0.1815812,0.487624 0,0.6875 l 1.25,1.375 c 0.1795254,0.197613 0.4306498,0.191166 0.625,0 l 4.125,-4.0625 a 0.50886981,0.50886981 0 0 1 0.6875,0 l 4.125,4.0625 c 0.194351,0.191166 0.445474,0.197613 0.625,0 l 1.25,-1.375 c 0.181581,-0.199876 0.187155,-0.503411 0,-0.6875 L 14.375,12.375 a 0.50886981,0.50886981 0 0 1 0,-0.75 l 3.96875,-3.90625 c 0.187155,-0.1840891 0.181582,-0.487624 0,-0.6875 l -1.25,-1.375 c -0.179526,-0.1976133 -0.430649,-0.1911664 -0.625,0 l -4.125,4.0625 a 0.50886981,0.50886981 0 0 1 -0.6875,0 l -4.125,-4.0625 C 7.4334604,5.5600625 7.284404,5.4972731 7.1875,5.5 z"
     id="path4347"
     style="opacity:0.1;color:#000000;fill:none;stroke:#000000;stroke-width:1;stroke-linecap:round;stroke-linejoin:round;stroke-miterlimit:4;stroke-opacity:1;stroke-dasharray:none;stroke-dashoffset:0;marker:none;visibility:visible;display:inline;overflow:visible;enable-background:accumulate" />
  <path
     d="M 17.623596,7.7107007 16.76426,6.7725857 12.860987,10.597576 c -0.298366,0.330607 -1.467332,0.26487 -1.693023,0.03918 L 7.2465716,6.7568158 6.3769361,7.7191219"
     inkscape:connector-curvature="0"
     id="path7076"
     style="font-size:59.90107727px;font-style:normal;font-variant:normal;font-weight:bold;font-stretch:normal;text-align:start;line-height:125%;writing-mode:lr-tb;text-anchor:start;opacity:0.02999998;color:#000000;fill:none;stroke:#000000;stroke-width:1;stroke-linecap:butt;stroke-linejoin:miter;stroke-miterlimit:4;stroke-opacity:1;stroke-dasharray:none;stroke-dashoffset:0;marker:none;visibility:visible;display:inline;overflow:visible;enable-background:accumulate;font-family:Bitstream Vera Sans" />
  <path
     d="m 17.646626,16.981451 -4.175112,-4.10451 m -2.860795,-0.04092 -4.250738,4.138527"
     inkscape:connector-curvature="0"
     id="path3165"
     style="font-size:59.90107727px;font-style:normal;font-variant:normal;font-weight:bold;font-stretch:normal;text-align:start;line-height:125%;writing-mode:lr-tb;text-anchor:start;opacity:0.02999998;color:#000000;fill:none;stroke:#000000;stroke-width:1;stroke-linecap:butt;stroke-linejoin:miter;stroke-miterlimit:4;stroke-opacity:1;stroke-dasharray:none;stroke-dashoffset:0;marker:none;visibility:visible;display:inline;overflow:visible;enable-background:accumulate;font-family:Bitstream Vera Sans" />
</svg>

<?xml version="1.0" encoding="UTF-8" standalone="no"?>
<!-- Created with Inkscape (http://www.inkscape.org/) -->

<svg
   xmlns:dc="http://purl.org/dc/elements/1.1/"
   xmlns:cc="http://creativecommons.org/ns#"
   xmlns:rdf="http://www.w3.org/1999/02/22-rdf-syntax-ns#"
   xmlns:svg="http://www.w3.org/2000/svg"
   xmlns="http://www.w3.org/2000/svg"
   xmlns:xlink="http://www.w3.org/1999/xlink"
   xmlns:sodipodi="http://sodipodi.sourceforge.net/DTD/sodipodi-0.dtd"
   xmlns:inkscape="http://www.inkscape.org/namespaces/inkscape"
   version="1.0"
   width="24"
   height="24"
   id="svg2"
   inkscape:version="0.48.4 r9939"
   sodipodi:docname="process-stop.svg">
  <sodipodi:namedview
     pagecolor="#ffffff"
     bordercolor="#666666"
     borderopacity="1"
     objecttolerance="10"
     gridtolerance="10"
     guidetolerance="10"
     inkscape:pageopacity="0"
     inkscape:pageshadow="2"
     inkscape:window-width="1440"
     inkscape:window-height="845"
     id="namedview30"
     showgrid="false"
     inkscape:zoom="16.57913"
     inkscape:cx="13.420284"
     inkscape:cy="8.9631882"
     inkscape:window-x="0"
     inkscape:window-y="30"
     inkscape:window-maximized="1"
     inkscape:current-layer="svg2">
    <inkscape:grid
       type="xygrid"
       id="grid3274" />
  </sodipodi:namedview>
  <metadata
     id="metadata31">
    <rdf:RDF>
      <cc:Work
         rdf:about="">
        <dc:format>image/svg+xml</dc:format>
        <dc:type
           rdf:resource="http://purl.org/dc/dcmitype/StillImage" />
        <dc:title />
      </cc:Work>
    </rdf:RDF>
  </metadata>
  <defs
     id="defs4">
    <linearGradient
       id="linearGradient2867-449-88-871-390-598-476-591-434-148-57-177-641-289-620-227-114-444-680-744-4-1-5-5-1">
      <stop
         offset="0"
         style="stop-color:#737373;stop-opacity:1"
         id="stop5430-5-0-9-9-4" />
      <stop
         offset="0.26238"
         style="stop-color:#636363;stop-opacity:1"
         id="stop5432-2-0-0-4-6" />
      <stop
         offset="0.704952"
         style="stop-color:#4b4b4b;stop-opacity:1"
         id="stop5434-9-6-8-4-9" />
      <stop
         offset="1"
         style="stop-color:#3f3f3f;stop-opacity:1"
         id="stop5436-2-7-0-2-5" />
    </linearGradient>
    <radialGradient
       gradientTransform="matrix(0,1.7142863,1.7418575,0,44.771221,-20.233914)"
       gradientUnits="userSpaceOnUse"
       xlink:href="#linearGradient2867-449-88-871-390-598-476-591-434-148-57-177-641-289-620-227-114-444-680-744-4-1-5-6"
       id="radialGradient4075"
       fy="-19.005346"
       fx="16.202444"
       r="19.99999"
       cy="-19.005346"
       cx="16.202444" />
    <linearGradient
       id="linearGradient2867-449-88-871-390-598-476-591-434-148-57-177-641-289-620-227-114-444-680-744-4-1-5-6">
      <stop
         offset="0"
         style="stop-color:#737373;stop-opacity:1"
         id="stop5430-5-0-9-4" />
      <stop
         offset="0.26238"
         style="stop-color:#636363;stop-opacity:1"
         id="stop5432-2-0-0-4-5" />
      <stop
         offset="0.704952"
         style="stop-color:#4b4b4b;stop-opacity:1"
         id="stop5434-9-6-8-5" />
      <stop
         offset="1"
         style="stop-color:#3f3f3f;stop-opacity:1"
         id="stop5436-2-7-0-0" />
    </linearGradient>
    <radialGradient
       inkscape:collect="always"
       xlink:href="#linearGradient2867-449-88-871-390-598-476-591-434-148-57-177-641-289-620-227-114-444-680-744-4-1-5-5-1"
       id="radialGradient3278"
       gradientUnits="userSpaceOnUse"
       gradientTransform="matrix(0,1.5000006,1.5241254,0,40.665768,-23.490064)"
       cx="16.202444"
       cy="-19.005346"
       fx="16.202444"
       fy="-19.005346"
       r="19.99999" />
    <radialGradient
       inkscape:collect="always"
       xlink:href="#linearGradient2867-449-88-871-390-598-476-591-434-148-57-177-641-289-620-227-114-444-680-744-4-1-5-5-1-55"
       id="radialGradient3278-9"
       gradientUnits="userSpaceOnUse"
       gradientTransform="matrix(1.0166597,1.0000037,0.97650205,-1.0748863,10.941487,-43.985245)"
       cx="16.202444"
       cy="-19.005346"
       fx="16.202444"
       fy="-19.005346"
       r="19.99999" />
    <linearGradient
       id="linearGradient2867-449-88-871-390-598-476-591-434-148-57-177-641-289-620-227-114-444-680-744-4-1-5-5-1-55">
      <stop
         offset="0"
         style="stop-color:#737373;stop-opacity:1"
         id="stop5430-5-0-9-9-4-6" />
      <stop
         offset="0.26238"
         style="stop-color:#636363;stop-opacity:1"
         id="stop5432-2-0-0-4-6-7" />
      <stop
         offset="0.704952"
         style="stop-color:#4b4b4b;stop-opacity:1"
         id="stop5434-9-6-8-4-9-3" />
      <stop
         offset="1"
         style="stop-color:#3f3f3f;stop-opacity:1"
         id="stop5436-2-7-0-2-5-7" />
    </linearGradient>
    <linearGradient
       id="linearGradient2867-449-88-871-390-598-476-591-434-148-57-177-641-289-620-227-114-444-680-744-4-1-5-5-1-55-0">
      <stop
         offset="0"
         style="stop-color:#737373;stop-opacity:1"
         id="stop5430-5-0-9-9-4-6-5" />
      <stop
         offset="0.26238"
         style="stop-color:#636363;stop-opacity:1"
         id="stop5432-2-0-0-4-6-7-6" />
      <stop
         offset="0.704952"
         style="stop-color:#4b4b4b;stop-opacity:1"
         id="stop5434-9-6-8-4-9-3-8" />
      <stop
         offset="1"
         style="stop-color:#3f3f3f;stop-opacity:1"
         id="stop5436-2-7-0-2-5-7-1" />
    </linearGradient>
    <radialGradient
       r="19.99999"
       fy="-19.005346"
       fx="16.202444"
       cy="-19.005346"
       cx="16.202444"
       gradientTransform="matrix(0,1.426045,1.4522179,0,22.218363,-39.273003)"
       gradientUnits="userSpaceOnUse"
       id="radialGradient4106"
       xlink:href="#linearGradient2867-449-88-871-390-598-476-591-434-148-57-177-641-289-620-227-114-444-680-744-4-1-5-5-1-55-0"
       inkscape:collect="always" />
    <radialGradient
       inkscape:collect="always"
       xlink:href="#linearGradient2867-449-88-871-390-598-476-591-434-148-57-177-641-289-620-227-114-444-680-744-4-1-5-6"
       id="radialGradient4139"
       gradientUnits="userSpaceOnUse"
       gradientTransform="matrix(0,1.7142863,1.7418575,0,44.771221,-20.233914)"
       cx="16.202444"
       cy="-19.005346"
       fx="16.202444"
       fy="-19.005346"
       r="19.99999" />
    <radialGradient
       inkscape:collect="always"
       xlink:href="#linearGradient2867-449-88-871-390-598-476-591-434-148-57-177-641-289-620-227-114-444-680-744-4-1-5-6"
       id="radialGradient4144"
       gradientUnits="userSpaceOnUse"
       gradientTransform="matrix(0,1.7142863,1.7418575,0,44.851054,-28.368044)"
       cx="16.202444"
       cy="-19.005346"
       fx="16.202444"
       fy="-19.005346"
       r="19.99999" />
    <radialGradient
       inkscape:collect="always"
       xlink:href="#linearGradient2867-449-88-871-390-598-476-591-434-148-57-177-641-289-620-227-114-444-680-744-4-1-5-6-3"
       id="radialGradient4144-1"
       gradientUnits="userSpaceOnUse"
       gradientTransform="matrix(0,1.7142863,1.7418575,0,44.851054,-28.368044)"
       cx="16.202444"
       cy="-19.005346"
       fx="16.202444"
       fy="-19.005346"
       r="19.99999" />
    <linearGradient
       id="linearGradient2867-449-88-871-390-598-476-591-434-148-57-177-641-289-620-227-114-444-680-744-4-1-5-6-3">
      <stop
         offset="0"
         style="stop-color:#737373;stop-opacity:1"
         id="stop5430-5-0-9-4-4" />
      <stop
         offset="0.26238"
         style="stop-color:#636363;stop-opacity:1"
         id="stop5432-2-0-0-4-5-7" />
      <stop
         offset="0.704952"
         style="stop-color:#4b4b4b;stop-opacity:1"
         id="stop5434-9-6-8-5-6" />
      <stop
         offset="1"
         style="stop-color:#3f3f3f;stop-opacity:1"
         id="stop5436-2-7-0-0-0" />
    </linearGradient>
  </defs>
  <path
     d="m -20.440678,4.1949155 -8.84375,8.8437505 1.6875,1.71875 1.15625,-1.15625 0,6.593749 5,0 0,-4 c 0,-0.553999 0.446,-0.999999 1,-0.999999 0.554,0 1,0.446 1,0.999999 l 0,4 5,0 0,-6.593749 1.15625,1.15625 1.6875,-1.71875 -8.84375,-8.8437505 z m 4,1 0,1.53125 2,2.09375 0,-3.625 -2,0 z"
     inkscape:connector-curvature="0"
     id="path2998-2"
     style="opacity:0.35;color:#000000;fill:#ffffff;fill-opacity:1;fill-rule:nonzero;stroke:none;stroke-width:1;marker:none;visibility:visible;display:inline;overflow:visible;enable-background:accumulate" />
  <path
     style="color:#000000;fill:url(#radialGradient4144-1);fill-opacity:1;fill-rule:nonzero;stroke:none;stroke-width:1;marker:none;visibility:visible;display:inline;overflow:visible;enable-background:accumulate"
     d="M 7.1875 5 C 6.9435121 5.0068659 6.7127478 5.1127159 6.53125 5.3125 L 5.28125 6.6875 C 4.9182543 7.0870681 4.9276712 7.7152259 5.3125 8.09375 L 9.28125 12 L 5.3125 15.90625 C 4.9276712 16.284774 4.9182543 16.912932 5.28125 17.3125 L 6.53125 18.6875 C 6.8942457 19.087068 7.4901712 19.097274 7.875 18.71875 L 12 14.65625 L 16.125 18.71875 C 16.509829 19.097274 17.105754 19.087068 17.46875 18.6875 L 18.71875 17.3125 C 19.081746 16.912932 19.072329 16.284774 18.6875 15.90625 L 14.71875 12 L 18.6875 8.09375 C 19.072329 7.7152259 19.081746 7.0870681 18.71875 6.6875 L 17.46875 5.3125 C 17.105754 4.9129319 16.509829 4.9027259 16.125 5.28125 L 12 9.34375 L 7.875 5.28125 C 7.6825856 5.0919879 7.4314879 4.9931341 7.1875 5 z "
     id="rect3280" />
  <path
     sodipodi:type="inkscape:offset"
     inkscape:radius="-0.50881892"
     inkscape:original="M 7.1875 5 C 6.9435121 5.0068659 6.7127478 5.1127159 6.53125 5.3125 L 5.28125 6.6875 C 4.9182543 7.0870681 4.9276712 7.7152259 5.3125 8.09375 L 9.28125 12 L 5.3125 15.90625 C 4.9276712 16.284774 4.9182543 16.912932 5.28125 17.3125 L 6.53125 18.6875 C 6.8942457 19.087068 7.4901712 19.097274 7.875 18.71875 L 12 14.65625 L 16.125 18.71875 C 16.509829 19.097274 17.105754 19.087068 17.46875 18.6875 L 18.71875 17.3125 C 19.081746 16.912932 19.072329 16.284774 18.6875 15.90625 L 14.71875 12 L 18.6875 8.09375 C 19.072329 7.7152259 19.081746 7.0870681 18.71875 6.6875 L 17.46875 5.3125 C 17.105754 4.9129319 16.509829 4.9027259 16.125 5.28125 L 12 9.34375 L 7.875 5.28125 C 7.6825856 5.0919879 7.4314879 4.9931341 7.1875 5 z "
     style="opacity:0.1;color:#000000;fill:none;stroke:#000000;stroke-width:1;stroke-linecap:round;stroke-linejoin:round;stroke-miterlimit:4;stroke-opacity:1;stroke-dasharray:none;stroke-dashoffset:0;marker:none;visibility:visible;display:inline;overflow:visible;enable-background:accumulate"
     id="path4347"
     d="m 7.1875,5.5 c -0.1060184,0.00298 -0.1839437,0.04914 -0.28125,0.15625 l -1.25,1.375 c -0.1815814,0.199876 -0.1871552,0.503411 0,0.6875 L 9.625,11.625 a 0.50886981,0.50886981 0 0 1 0,0.75 l -3.96875,3.90625 c -0.187155,0.184089 -0.1815812,0.487624 0,0.6875 l 1.25,1.375 c 0.1795254,0.197613 0.4306498,0.191166 0.625,0 l 4.125,-4.0625 a 0.50886981,0.50886981 0 0 1 0.6875,0 l 4.125,4.0625 c 0.194351,0.191166 0.445474,0.197613 0.625,0 l 1.25,-1.375 c 0.181581,-0.199876 0.187155,-0.503411 0,-0.6875 L 14.375,12.375 a 0.50886981,0.50886981 0 0 1 0,-0.75 l 3.96875,-3.90625 c 0.187155,-0.1840891 0.181582,-0.487624 0,-0.6875 l -1.25,-1.375 c -0.179526,-0.1976133 -0.430649,-0.1911664 -0.625,0 l -4.125,4.0625 a 0.50886981,0.50886981 0 0 1 -0.6875,0 l -4.125,-4.0625 C 7.4334604,5.5600625 7.284404,5.4972731 7.1875,5.5 z" />
  <path
     d="M 17.623596,7.7107007 16.76426,6.7725857 12.860987,10.597576 c -0.298366,0.330607 -1.467332,0.26487 -1.693023,0.03918 L 7.2465716,6.7568158 6.3769361,7.7191219"
     inkscape:connector-curvature="0"
     id="path7076"
     style="font-size:59.90107727px;font-style:normal;font-variant:normal;font-weight:bold;font-stretch:normal;text-align:start;line-height:125%;writing-mode:lr-tb;text-anchor:start;opacity:0.02999998;color:#000000;fill:none;stroke:#000000;stroke-width:1;stroke-linecap:butt;stroke-linejoin:miter;stroke-miterlimit:4;stroke-opacity:1;stroke-dasharray:none;stroke-dashoffset:0;marker:none;visibility:visible;display:inline;overflow:visible;enable-background:accumulate;font-family:Bitstream Vera Sans"
     sodipodi:nodetypes="cccccc" />
  <path
     d="m 17.646626,16.981451 -4.175112,-4.10451 m -2.860795,-0.04092 -4.250738,4.138527"
     inkscape:connector-curvature="0"
     id="path3165"
     style="font-size:59.90107727px;font-style:normal;font-variant:normal;font-weight:bold;font-stretch:normal;text-align:start;line-height:125%;writing-mode:lr-tb;text-anchor:start;opacity:0.02999998;color:#000000;fill:none;stroke:#000000;stroke-width:1;stroke-linecap:butt;stroke-linejoin:miter;stroke-miterlimit:4;stroke-opacity:1;stroke-dasharray:none;stroke-dashoffset:0;marker:none;visibility:visible;display:inline;overflow:visible;enable-background:accumulate;font-family:Bitstream Vera Sans"
     sodipodi:nodetypes="cccc" />
</svg>
